X: 2
T: Boil The Breakfast Early
R: reel
M: 4/4
L: 1/8
K: Gmaj
|:G2 BG AD D2| GB B2 c2BA|G2 BG AD D2| GE E2 c2BA|G2 BG AD D2| GB B2 c2 Bc|dBcA BGAF| GE E2 c2 Bc|||:d2 fd edB^c|d2 ef g2 fe|d2 fd edBA| GE E2 c2 Bc|d2 fd edB^c|d2 ef g2 fg|afge fded| dcAB c2 Bc|||:dA A2 dAFA|dA A2 defe|dA A2 dAFA|GE E2 c2 Bc|dA A2 dAFA| d2 d^c defe| dBcA BGAF|GE E2 c2 BA ||


Tune 3	Setting 3

